!!!COM:	Bach, Johann Sebastian
!!!CDT:	1685/02/21/-1750/07/28/
!!!OTL@@DE:	Jesu meiner Seelen Wonne
!!!SCT:	BWV 359
!!!PC#:	365
!!!AGN:	chorale
**kern	**kern	**kern	**kern
*ICvox	*ICvox	*ICvox	*ICvox
*Ibass	*Itenor	*Ialto	*Isoprn
*I"Bass	*I"Tenor	*I"Alto	*I"Soprano
*>[A,A,B]	*>[A,A,B]	*>[A,A,B]	*>[A,A,B]
*>norep[A,B]	*>norep[A,B]	*>norep[A,B]	*>norep[A,B]
*>A	*>A	*>A	*>A
*	*oclefC4	*oclefC3	*oclefC1
*clefF4	*clefGv2	*clefG2	*clefG2
*k[f#c#g#]	*k[f#c#g#]	*k[f#c#g#]	*k[f#c#g#]
*A:	*A:	*A:	*A:
*M4/4	*M4/4	*M4/4	*M4/4
*met(c)	*met(c)	*met(c)	*met(c)
*MM100	*MM100	*MM100	*MM100
=1-	=1-	=1-	=1-
4A	4e	4a	4cc#
4F#	4f#	4a	4dd
4C#	8eL	4g#	4ee
.	8dJ	.	.
4F#	4c#	4a	4ee
=2	=2	=2	=2
4BB	4d	8aL	4dd
.	.	8g#J	.
8C#L	4e	4a	4cc#
8DJ	.	.	.
4E	4e	4g#	4b
4E;	4e;	4g#;	4b;
=3	=3	=3	=3
8AL	4e	4a	4cc#
8G#J	.	.	.
4F#	4f#	4a	4dd
4G#	4.e	4.b	8eeL
.	.	.	8ddJ
4A	.	.	4cc#
.	16f#LL	8a	.
.	16gJJ	.	.
=4	=4	=4	=4
4D	4f#	4a	4b
4E	8eL	4g#X	4b
.	8dJ	.	.
2AA;	2c#;	2e;	2a;
=5:|!	=5:|!	=5:|!	=5:|!
*>B	*>B	*>B	*>B
4E	4e	4g#	4b
8DL	4e	4a#	4cc#
8C#J	.	.	.
8BBL	4f#	4b	4dd
8C#J	.	.	.
8DL	4f#	4b	4dd
8EJ	.	.	.
=6	=6	=6	=6
4F#	8f#L	4b	4cc#
.	8gJ	.	.
4F#	8f#L	4a#	4cc#
.	8eJ	.	.
2BB;	2d;	2f#;	2b;
=7	=7	=7	=7
4B	4d	4f#	4dd
8AL	4c#	4a	4ee
8GJ	.	.	.
8F#L	4d	4.a	4ff#
8EJ	.	.	.
4D	4d	.	4ff#
.	.	16bLL	.
.	.	16ccJJ	.
=8	=8	=8	=8
4G	4d	4b	4ee
4A	4c#X	8aL	4ee
.	.	8gJ	.
2D;	2A;	2f#;	2dd;
=9	=9	=9	=9
8AL	4A	4e	4cc#
8G#XJ	.	.	.
4F#	4A	4a	4dd
4G	4B	8eL	4ee
.	.	8f#J	.
4AA#	[4c#	4g	4ee
=10	=10	=10	=10
4BB	8c#]	8f#L	4dd
.	4B	8g#XJ	.
8C#L	.	8eL	4cc#
8DJ	8A	8f#J	.
4E	4e	4g#	4b
4E;	4e;	4g#;	4b;
=11	=11	=11	=11
8AAL	4e	4a	4cc#
8AJ	.	.	.
8G#L	4f#	4a	4dd
8F#J	.	.	.
8G#L	4e	8bL	8eeL
8EJ	.	8g#J	8ddJ
8AL	4e	4a	4cc#
8AAJ	.	.	.
=12	=12	=12	=12
8DL	4f#	4a	4b
8BBJ	.	.	.
4E	8eL	4g#	4b
.	8dJ	.	.
2AA;	2c#;	2e;	2a;
==	==	==	==
*-	*-	*-	*-
!!!YOR1: 371 vierstimmige Choralges&auml;nge von Johann Sebastian Bach, 
!!!YOR2: 4th ed. by Alfred D&ouml;rffel (Leipzig: Breitkopf und H&auml;rtel, 
!!!YOR2: c.1875). 178 pp. Plate "V.A.10".  reprint: J.S. Bach, 371 Four-Part 
!!!YOR4: Chorales (New York: Associated Music Publishers, Inc., c.1940).
!!!SMS: B&H, 4th ed, Alfred D&ouml;rffel, c.1875, plate V.A.10
!!!EED:  Craig Stuart Sapp
!!!EEV:  2009/05/22
